X:83
T:Polska efter Olof Styrlander
R:Polska
S:Efter Olof Styrlander
O:Östergötland
B:Jämför [[http://www.smus.se/earkiv/fmk/browselarge.php?lang=sw&katalogid=Ma+14&bildnr=00121|SMUS - katalog Ma14 bild 121]]
M:3/4
L:1/16
K:Dm
D2FA  d4B4       |  A2^ce a4f3e       |  d2ba  g2f2  e2d2  |  ^cdec A3G F2E2 |  D2FA d4B4 |
A2^ce a4f3e      |  d2ba  g2f2  e2d2  |1 ^cdec d8         :|2 ^cdec d6 fg    |:
a4    f3a   bagf |  g4    e3g   agfe  |  f2ef  d2ef  gfed  |
^cdec ABGA  FGEF |  D2FA  d4B4        |  A2^ce a4f3e       |
d2ba  g2f2  e2d2 |1 ^cdec d6    fg   :|2 ^cdec d8          |]
(:musicend:)

Transkription av avskrift av originaluppteckning:
(:music:)
